X:105
M:2/4
L:1/8
K:D
| FF ED | EA AB | cA GE | FD DE | 
|: dd ed | cA AB | cA GE | FD D[1]A | 
dd ed | cA A>B | cA GE | D2 D2 :| 
[2]E | F2 ED | EA A>B | cA GE | D2 D2 || 

